assets/svg/1f4f4.svg

<svg xmlns="http://www.w3.org/2000/svg" viewBox="0 0 64 64" enable-background="new 0 0 64 64"><circle fill="#f2b200" cx="32" cy="32" r="30"/><g fill="#fff"><path d="m32 37c-2.757 0-5-2.243-5-5s2.243-5 5-5 5 2.243 5 5-2.243 5-5 5m0-8.571c-1.97 0-3.571 1.603-3.571 3.571s1.601 3.571 3.571 3.571 3.571-1.603 3.571-3.571-1.601-3.571-3.571-3.571"/><path d="m39.455 37v-4.285h6.545v-1.425h-6.545v-2.861h6.545v-1.429h-8v10z"/><path d="m48.45 37v-4.285h6.55v-1.425h-6.55v-2.861h6.55v-1.429h-8v10z"/><path d="m42.4 39.75v6.75h-20.8v-32h20.8v9.75h2.6v-9.75c0-2.762-2.328-5-5.2-5h-15.6c-2.87 0-5.2 2.238-5.2 5v35c0 2.762 2.33 5 5.2 5h15.6c2.872 0 5.2-2.238 5.2-5v-9.75h-2.6m-10.4 12.233c-.861 0-1.561-.672-1.561-1.5s.699-1.5 1.561-1.5c.863 0 1.561.672 1.561 1.5s-.698 1.5-1.561 1.5"/></g></svg>

<svg xmlns="http://www.w3.org/2000/svg" width="64" height="64" viewBox="0 0 64 64"><circle fill="#EDA454" cx="32" cy="32" r="30"/><path fill="#FFF" d="M32 37c-2.757 0-5-2.244-5-5 0-2.758 2.243-5 5-5s5 2.242 5 5c0 2.756-2.243 5-5 5zm0-8.572c-1.97 0-3.571 1.604-3.571 3.572S30.03 35.57 32 35.57s3.571-1.602 3.571-3.57S33.97 28.428 32 28.428zM39.455 37v-4.285H46v-1.43h-6.545v-2.857H46V27h-8v10zM48.455 37v-4.285H55v-1.43h-6.545v-2.857H55V27h-8v10z"/><path fill="#FFF" d="M42.4 39.75v6.75H21.6v-32h20.8v9.75H45V14.5c0-2.762-2.328-5-5.2-5H24.2c-2.87 0-5.2 2.238-5.2 5v35c0 2.762 2.33 5 5.2 5h15.6c2.872 0 5.2-2.238 5.2-5v-9.75h-2.6zM32 51.982c-.861 0-1.561-.672-1.561-1.5s.699-1.5 1.561-1.5c.863 0 1.561.672 1.561 1.5s-.698 1.5-1.561 1.5z"/></svg>
